X: 47
T:Constant Billy - Oddington
M:6/8
L:1/8
Q:100
S:OY(A2B2)3
N:Tune as played for Grand Union Morris
N:www.grandunionmorris.co.uk
K:G
"A" GBd cAB | c2 A AGA | B2 G E2 E | DEF G3 :||
"B" Bcd ecA | B2 c dBG | Bcd e2 e | ABc dBG | GBd cAB | c2 A AGA | B2 G
E2 E | DEF G3 ||
